svgs/sharp-regular/anchor-lock.svg

<svg xmlns="http://www.w3.org/2000/svg" viewBox="0 0 640 512"><!--! Font Awesome Pro 6.6.0 by @fontawesome - https://fontawesome.com License - https://fontawesome.com/license (Commercial License) Copyright 2024 Fonticons, Inc. --><path d="M320 80a32 32 0 1 1 -64 0 32 32 0 1 1 64 0zM288 0c-44.2 0-80 35.8-80 80c0 35.9 23.7 66.3 56.3 76.4c-.2 1.2-.3 2.4-.3 3.6l0 32-48 0-24 0 0 48 24 0 48 0 0 224-144 0 0-112 72 0L96 256 0 352l72 0 0 136 0 24 24 0 192 0 96 0 0-48-72 0 0-224 48 0 24 0 0-48-24 0-48 0 0-32c0-1.2-.1-2.4-.3-3.6C344.3 146.3 368 115.9 368 80c0-44.2-35.8-80-80-80zm96 352s0 0 0 0s0 0 0 0s0 0 0 0zM528 240c17.7 0 32 14.3 32 32l0 48-64 0 0-48c0-17.7 14.3-32 32-32zm-80 32l0 48-32 0 0 192 224 0 0-192-32 0 0-48c0-44.2-35.8-80-80-80s-80 35.8-80 80z"/></svg>

<svg xmlns="http://www.w3.org/2000/svg" viewBox="0 0 640 512"><!--! Font Awesome Pro 6.5.2 by @fontawesome - https://fontawesome.com License - https://fontawesome.com/license (Commercial License) Copyright 2024 Fonticons, Inc. --><path d="M320 80a32 32 0 1 1 -64 0 32 32 0 1 1 64 0zM288 0c-44.2 0-80 35.8-80 80c0 35.9 23.7 66.3 56.3 76.4c-.2 1.2-.3 2.4-.3 3.6v32H216 192v48h24 48V464H120V352h72L96 256 0 352H72V488v24H96 288h96l0-48H312V240h48 24V192H360 312V160c0-1.2-.1-2.4-.3-3.6C344.3 146.3 368 115.9 368 80c0-44.2-35.8-80-80-80zm96 352l0 0v0h0zM528 240c17.7 0 32 14.3 32 32v48H496V272c0-17.7 14.3-32 32-32zm-80 32v48H416V512H640V320H608V272c0-44.2-35.8-80-80-80s-80 35.8-80 80z"/></svg>
